X: 77
T: I'm in the mood for love
B: "Lakewood Music Center" handwritten song fakebook
Z: 2021 John Chambers <jc:trillian.mit.edu>
M: C|
L: 1/8
K: C
% %continueall 0
%%barnumbers 0
% - - - - - - - - - - - - - - -
P: intro
[|\
"C"GAEF "-M7"G4 | "Dm7"FGDE "Ddim"F4 | "C"EFCD E2E2 | "Dm"A2G2- "G7"G4 |\
"C"G2"Edim"A>E "Dm"F>D "G7"G2 | "C"E8- | "Am"E4 "D7 G7"z4 |
"C"GAEF "-M7"G4 | "Dm7"FGDE "Ddim"F4 | "C"EFCD E2E2 | "E"B8 | B4 "C7"E4 |\
"F#m7"z2 "E"B>^G "F#m7"A>^F "B7"B2 | "E  A7"E8 | "D7  G7"D8 !segno!|: "C"(3E2F2E2 D2C2 |
 "Dm7"D4 | "G7"(3D2E2F2 G2A2 | "C"B2 c6 | "Em7"[dE]B2d "Cdim"[B2_E2]_B2 |\
"Dm"[A2D2] c6 | "G7"AG2A G2B,2 |1 "C   Dm G+"G8 :|2 "C"C8 ||
"Dm7"DE2F "G7"E2D2 | "C"[G2E2]G2- "Gm6 A7"G4 | "Fm"DE2F "G7"E2D2 | "C"G8 |\
"Am6"^FG2A "B7"G2F2 | "Em"B2 B6 | "Cm6"Bc2B "D7"d4 | "Fm6"DE2D "Dm7 G7"F4 "^D.S."y:|
% - - - - - - - - - - - - - - -
